T: Hughie Shortie's
M: 4/4
L: 1/8
K: Gmaj
|:G2GA cABA|GABd g2gf|ec~c2 dB~B2|cAAB [1 AFDF [2 GABd]|G2GA cABA|GABd g2gf|ec~c2 dB~B2|cAFA edBA:||:g2g/g/g bgdg|ec~c2 effe|dB~B2 gBB2|~c2AB [1 AFDF [2 AFD2|1g2g/g/g bgdg|ec~c2 effe|dB~B2 gBB2|cAFA GABd:|2C/C/CCz B,2zD|GABd g2gf|ec~c2 dB~B2|cAFA edBA:|
